X:274
T: ES HATT EIN BAUER EIN SCHOENES WEIB
N: E0150A
O: Europa, Mitteleuropa, Deutschland
R: erzaehlendes Volks - Lied, Scherz, Schwank, betrogener Ehemann
M: 6/8
L: 1/16
K: G
D2 | G4B2d3BG2 | F4A2c3A
F2 | G4B2d3BG2 | A6z4
D2 | G4B2d3BG2 | F4A2c3A
F2 | G4B2d3BG2 | A6z4
B2 | A3AA2A2G2A2 | B6z4
B2 | A3AA2A2G2A2 | B6z4
B2 | A3AA2A2G2A2 | G2B2d2
G2B2d2 | e4c2c4e2 | d4B2B4
G2 | A3Gc2D2E2F2 | G6z4
B2 | A3AA2A2G2A2 | G2B2d2
G2B2d2 | e4c2c4e2 | d4B2B4
G2 | A3Gc2D2E2F2 | G6z4

